public/Img/footer__logo.svg

<svg width="140" height="32" viewBox="0 0 140 32" fill="none" xmlns="http://www.w3.org/2000/svg">
<g clip-path="url(#clip0_1218_363)">
<path d="M2.17823 5.328V11.7287C2.17823 12.7786 2.17823 13.9581 0 13.9581V15.6873V15.7106V17.3967C2.17823 17.3967 2.17823 18.5753 2.17823 19.6259V26.0261C2.17823 30.9934 4.89982 31.3539 9.52762 31.3539V27.4906C7.34939 27.4906 6.53333 27.1699 6.53333 25.9306V19.5934C6.53333 18.1299 6.63379 16.6014 5.35638 15.6767C6.63379 14.7534 6.53333 13.2247 6.53333 11.76V5.424C6.53333 4.186 7.35007 3.864 9.52762 3.864V9.16678e-07C4.89982 -0.000664831 2.17823 0.360001 2.17823 5.328ZM14.4247 5.12066C13.2347 6.126 12.6401 7.57 12.6401 9.45134V11.1413H10.1544V14.6727H12.6401V27.4699H18.0416V14.6727H21.3879V11.1413H18.0416V9.936C18.0416 9.32266 18.2221 8.85 18.583 8.518C18.9439 8.186 19.4599 8.02066 20.129 8.02066C20.4577 8.02066 22.137 8.026 22.137 8.026V3.928C22.137 3.928 19.1386 3.89534 18.7101 3.89534C17.4061 3.89534 15.6146 4.114 14.4247 5.12066ZM24.5128 8.01134H29.915V3.928H24.5128V8.01134ZM24.5128 27.4706H29.915V11.1413H24.5128V27.4706ZM43.2359 10.8393C42.2161 10.8393 41.2913 11.0687 40.463 11.5259C39.6346 11.9833 38.9389 12.6207 38.3757 13.4346L38.1686 11.1413H33.117V27.4699H38.4871V15.7299C38.7632 15.428 39.0953 15.1901 39.4829 15.0207C39.8704 14.8513 40.3139 14.764 40.8136 14.764C41.6105 14.764 42.2134 14.9579 42.6221 15.3447C43.0309 15.7327 43.2359 16.3927 43.2359 17.3294V27.4713H48.6216V17.3447C48.6216 15.0807 48.1459 13.4306 47.1959 12.3941C46.2451 11.3573 44.9247 10.8393 43.2359 10.8393ZM64.9102 19.4193C63.8959 18.64 62.3362 18.0527 60.2331 17.6607C58.8949 17.4207 58.0043 17.1473 57.5642 16.8454C57.1233 16.5447 56.9026 16.176 56.9026 15.744C56.9026 15.2906 57.0939 14.9207 57.476 14.628C57.8581 14.336 58.3311 14.1894 58.8942 14.1894C59.659 14.1894 60.2141 14.356 60.5592 14.688C60.9043 15.02 61.0773 15.508 61.0773 16.1513H66.3038L66.3359 16.0614C66.4001 14.52 65.7522 13.2673 64.3921 12.296C63.032 11.3247 61.2043 10.8387 58.9099 10.8387C56.7317 10.8387 55.0059 11.34 53.7306 12.3414C52.4559 13.3426 51.8189 14.5614 51.8189 15.9993C51.8189 17.3574 52.3288 18.4299 53.3486 19.2139C54.3682 19.9993 55.8822 20.5774 57.8902 20.9499C59.1649 21.2014 60.0438 21.4854 60.5271 21.8019C61.011 22.1193 61.2522 22.48 61.2522 22.88C61.2522 23.3734 61.0663 23.7546 60.6945 24.0193C60.3226 24.2859 59.7759 24.4214 59.0535 24.4214C58.1827 24.4214 57.5102 24.2487 57.0379 23.9073C56.5649 23.5661 56.3182 23.0073 56.297 22.2327H51.4211L51.3897 22.3226C51.3262 23.712 51.9761 24.9699 53.3417 26.096C54.7066 27.2233 56.5629 27.7859 58.9106 27.7859C61.1736 27.7859 62.9923 27.3106 64.3681 26.3593C65.7447 25.4087 66.4322 24.2 66.4322 22.7301C66.4322 21.3026 65.9245 20.1986 64.9102 19.4193ZM84.1369 20.604H84.0413L81.2055 11.1427H77.8107L75.0064 20.6807H74.9107L73.0147 11.1427H68.0432L72.1064 27.4713H76.6488L79.4681 18.8094H79.5638L82.3688 27.4713H86.9262L90.9737 11.1427H86.0022L84.1369 20.604ZM100.118 10.8392C97.5576 10.8293 95.5886 11.612 94.2134 13.1866C92.8362 14.7607 92.1486 16.7906 92.1486 19.2753V19.8494C92.1486 22.1226 92.9059 24.0146 94.4184 25.524C95.9323 27.0339 97.9595 27.788 100.499 27.788C101.869 27.788 103.152 27.6146 104.347 27.2673C105.542 26.9207 106.517 26.4859 107.271 25.9626L105.996 22.8534C105.061 23.2266 104.288 23.4873 103.677 23.6386C103.066 23.7906 102.25 23.8659 101.231 23.8659C100.221 23.8659 99.4146 23.5967 98.809 23.0586C98.2029 22.5186 97.8426 21.8327 97.725 20.9979L97.7578 20.9066H107.605V18.2339C107.605 15.9607 106.94 14.16 105.613 12.8313C104.287 11.5033 102.454 10.8392 100.118 10.8392ZM102.349 17.7221H97.7114L97.6635 17.6473C97.749 16.7713 97.9855 16.072 98.3737 15.5487C98.7606 15.0266 99.3429 14.7647 100.119 14.7647C100.883 14.7647 101.445 14.9859 101.808 15.4287C102.169 15.8713 102.35 16.5054 102.35 17.3299L102.349 17.7221ZM118.192 10.8392C115.631 10.8293 113.664 11.612 112.287 13.1866C110.912 14.7607 110.223 16.7906 110.223 19.2753V19.8494C110.223 22.1226 110.98 24.0146 112.494 25.524C114.009 27.0339 116.034 27.788 118.573 27.788C119.944 27.788 121.227 27.6146 122.423 27.2673C123.618 26.9207 124.592 26.4859 125.346 25.9626L124.072 22.8534C123.137 23.2266 122.365 23.4873 121.753 23.6386C121.141 23.7906 120.326 23.8659 119.306 23.8659C118.297 23.8659 117.49 23.5967 116.885 23.0586C116.278 22.5186 115.918 21.8327 115.8 20.9979L115.832 20.9066H125.68V18.2339C125.68 15.9607 125.016 14.16 123.688 12.8313C122.36 11.5033 120.529 10.8392 118.192 10.8392ZM120.422 17.7221H115.786L115.738 17.6473C115.824 16.7713 116.059 16.072 116.447 15.5487C116.833 15.0266 117.416 14.7647 118.192 14.7647C118.957 14.7647 119.52 14.9859 119.882 15.4287C120.245 15.8713 120.424 16.5054 120.424 17.3299V17.7226H120.422V17.7221ZM136.745 23.2353C136.077 23.2353 135.56 23.0701 135.199 22.7381C134.839 22.4061 134.657 21.932 134.657 21.3186V14.7014H137.459V11.1687H134.657V3.902H129.256V11.1687H126.769V14.7014H129.256V21.8033C129.256 23.6847 129.85 25.1287 131.04 26.1353C132.229 27.1426 134.019 27.3607 135.326 27.3607C135.755 27.3607 138.753 27.328 138.753 27.328V23.2301C138.753 23.2301 137.075 23.2353 136.745 23.2353Z" fill="white"/>
</g>
<defs>
<clipPath id="clip0_1218_363">
<rect width="139.429" height="32" fill="white"/>
</clipPath>
</defs>
</svg>

<svg width="140" height="32" fill="none" xmlns="http://www.w3.org/2000/svg"><g clip-path="url(#a)"><path d="M2.178 5.328v6.4c0 1.05 0 2.23-2.178 2.23v3.439c2.178 0 2.178 1.178 2.178 2.229v6.4c0 4.967 2.722 5.328 7.35 5.328V27.49c-2.179 0-2.995-.321-2.995-1.56v-6.338c0-1.463.1-2.992-1.177-3.916 1.278-.924 1.177-2.452 1.177-3.917V5.424c0-1.238.817-1.56 2.995-1.56V0C4.9 0 2.178.36 2.178 5.328Zm12.247-.207c-1.19 1.005-1.785 2.449-1.785 4.33v1.69h-2.486v3.532h2.486V27.47h5.402V14.673h3.346V11.14h-3.346V9.936c0-.613.18-1.086.541-1.418.36-.332.877-.497 1.546-.497l2.008.005V3.928s-2.998-.033-3.427-.033c-1.304 0-3.095.219-4.285 1.226Zm10.088 2.89h5.402V3.928h-5.402v4.083Zm0 19.46h5.402V11.14h-5.402v16.33Zm18.723-16.632c-1.02 0-1.945.23-2.773.687a6.114 6.114 0 0 0-2.087 1.909l-.207-2.294h-5.052V27.47h5.37V15.73c.276-.302.608-.54.996-.71.387-.169.83-.256 1.33-.256.797 0 1.4.194 1.81.58.408.389.613 1.049.613 1.985v10.142h5.386V17.345c0-2.264-.476-3.914-1.426-4.95-.95-1.038-2.271-1.556-3.96-1.556Zm21.674 8.58c-1.014-.779-2.574-1.366-4.677-1.758-1.338-.24-2.229-.514-2.669-.816-.44-.3-.661-.669-.661-1.101 0-.453.19-.823.573-1.116.382-.292.855-.439 1.418-.439.765 0 1.32.167 1.665.499.345.332.518.82.518 1.463h5.227l.032-.09c.064-1.541-.584-2.794-1.944-3.765-1.36-.971-3.188-1.457-5.482-1.457-2.178 0-3.904.501-5.18 1.502-1.274 1.002-1.911 2.22-1.911 3.658 0 1.358.51 2.43 1.53 3.215 1.02.785 2.533 1.363 4.541 1.736 1.275.251 2.154.535 2.637.852.484.317.725.678.725 1.078 0 .493-.186.875-.558 1.14-.371.266-.918.401-1.64.401-.871 0-1.544-.172-2.016-.514-.473-.34-.72-.9-.741-1.674h-4.876l-.031.09c-.064 1.389.586 2.647 1.952 3.773 1.365 1.127 3.22 1.69 5.569 1.69 2.263 0 4.081-.475 5.457-1.427 1.377-.95 2.064-2.159 2.064-3.629 0-1.427-.508-2.531-1.522-3.31Zm19.227 1.185h-.096l-2.835-9.461H77.81l-2.805 9.538h-.095l-1.896-9.538h-4.972l4.063 16.328h4.543l2.82-8.662h.095l2.805 8.662h4.557l4.048-16.328h-4.972l-1.865 9.461Zm15.981-9.765c-2.56-.01-4.53.773-5.905 2.348-1.377 1.574-2.064 3.604-2.064 6.088v.574c0 2.274.757 4.166 2.27 5.675 1.513 1.51 3.54 2.264 6.08 2.264 1.37 0 2.653-.173 3.848-.52 1.195-.347 2.17-.782 2.924-1.305l-1.275-3.11c-.935.374-1.708.634-2.319.786-.611.152-1.427.227-2.446.227-1.01 0-1.816-.27-2.422-.807-.606-.54-.966-1.226-1.084-2.061l.033-.091h9.847v-2.673c0-2.273-.665-4.074-1.992-5.403-1.326-1.328-3.159-1.992-5.495-1.992Zm2.231 6.883h-4.638l-.047-.075c.085-.876.322-1.575.71-2.098.387-.522.969-.784 1.745-.784.764 0 1.326.22 1.689.664.361.442.542 1.076.542 1.9l-.001.393Zm15.843-6.883c-2.561-.01-4.528.773-5.905 2.348-1.375 1.574-2.064 3.604-2.064 6.088v.574c0 2.274.757 4.166 2.271 5.675 1.515 1.51 3.54 2.264 6.079 2.264 1.371 0 2.654-.173 3.85-.52 1.195-.347 2.169-.782 2.923-1.305l-1.274-3.11c-.935.374-1.707.634-2.319.786-.612.152-1.427.227-2.447.227-1.009 0-1.816-.27-2.421-.807-.607-.54-.967-1.226-1.085-2.061l.032-.091h9.848v-2.673c0-2.273-.664-4.074-1.992-5.403-1.328-1.328-3.159-1.992-5.496-1.992Zm2.23 6.883h-4.636l-.048-.075c.086-.876.321-1.575.709-2.098.386-.522.969-.784 1.745-.784.765 0 1.328.22 1.69.664.363.442.542 1.076.542 1.9v.394h-.002Zm16.323 5.513c-.668 0-1.185-.165-1.546-.497-.36-.332-.542-.806-.542-1.42v-6.617h2.802V11.17h-2.802V3.902h-5.401v7.267h-2.487V14.7h2.487v7.102c0 1.882.594 3.326 1.784 4.332 1.189 1.008 2.979 1.226 4.286 1.226.429 0 3.427-.033 3.427-.033V23.23l-2.008.005Z" fill="#fff"/></g><defs><clipPath id="a"><path fill="#fff" d="M0 0h139.429v32H0z"/></clipPath></defs></svg>
